dist/img/svg/fast-delivery-icon.svg

<svg width="40" height="37" viewBox="0 0 40 37" fill="none" xmlns="http://www.w3.org/2000/svg">
<path fill-rule="evenodd" clip-rule="evenodd" d="M16.3792 13.3015C16.68 13.0015 17.1662 13.0015 17.4669 13.3015L22.2931 18.1277C22.7508 17.8577 23.2769 17.6923 23.8462 17.6923C25.5431 17.6923 26.9231 19.0723 26.9231 20.7692C26.9231 22.4654 25.5431 23.8462 23.8462 23.8462C22.1492 23.8462 20.7692 22.4654 20.7692 20.7692C20.7692 20.2 20.9346 19.6731 21.2054 19.2154L16.3792 14.3892C16.0785 14.0892 16.0785 13.6023 16.3792 13.3015ZM23.8462 22.3069C24.6938 22.3069 25.3846 21.6169 25.3846 20.7692C25.3846 19.9208 24.6938 19.2308 23.8462 19.2308C23.5462 19.2308 23.2677 19.3208 23.03 19.47C22.9938 19.5808 22.94 19.6862 22.8515 19.7738C22.7638 19.8623 22.6577 19.9162 22.5469 19.9523C22.3977 20.19 22.3077 20.4685 22.3077 20.7692C22.3077 21.6169 22.9977 22.3069 23.8462 22.3069ZM36.1369 10.3346C38.5377 13.1492 40 16.7854 40 20.7692C40 29.6762 32.7531 36.9231 23.8462 36.9231C18.7162 36.9231 14.0054 34.5669 10.9215 30.4608C10.6669 30.1215 10.7354 29.6392 11.0746 29.3838C11.4146 29.1292 11.8977 29.1969 12.1523 29.5369C14.9431 33.2523 19.2054 35.3838 23.8462 35.3838C31.9054 35.3838 38.4615 28.8277 38.4615 20.7692C38.4615 12.71 31.9054 6.15308 23.8462 6.15308C18.9185 6.15308 14.3538 8.61231 11.6377 12.7308C11.4038 13.0854 10.9269 13.1831 10.5715 12.95C10.2169 12.7162 10.1192 12.2377 10.3531 11.8831C13.2138 7.54769 17.9285 4.88154 23.0769 4.63846V1.53769H20C19.5746 1.53769 19.2308 1.19308 19.2308 0.768462C19.2308 0.343846 19.5746 0 20 0H27.6923C28.1177 0 28.4615 0.343846 28.4615 0.768462C28.4615 1.19308 28.1177 1.53769 27.6923 1.53769H24.6154V4.65385C28.2931 4.82846 31.6485 6.24 34.2838 8.47385L36.3792 6.37846C36.68 6.07846 37.1662 6.07846 37.4669 6.37846L38.2362 7.14846C38.5369 7.44846 38.5369 7.93538 38.2362 8.23615L36.1369 10.3346ZM8.46154 16.9223H0.769231C0.343846 16.9223 0 16.5785 0 16.1531C0 15.7285 0.343846 15.3846 0.769231 15.3846H8.46154C8.88692 15.3846 9.23077 15.7285 9.23077 16.1531C9.23077 16.5785 8.88692 16.9223 8.46154 16.9223ZM3.84615 19.9992H13.0769C13.5023 19.9992 13.8462 20.3446 13.8462 20.7692C13.8462 21.1938 13.5023 21.5377 13.0769 21.5377H3.84615C3.42077 21.5377 3.07692 21.1938 3.07692 20.7692C3.07692 20.3446 3.42077 19.9992 3.84615 19.9992ZM6.15385 24.6154H10.7692C11.1946 24.6154 11.5385 24.9592 11.5385 25.3838C11.5385 25.8085 11.1946 26.1538 10.7692 26.1538H6.15385C5.72846 26.1538 5.38462 25.8085 5.38462 25.3838C5.38462 24.9592 5.72846 24.6154 6.15385 24.6154Z" fill="#F2C94C"/>
<path fill-rule="evenodd" clip-rule="evenodd" d="M16.3792 13.3015C16.68 13.0015 17.1662 13.0015 17.4669 13.3015L22.2931 18.1277C22.7508 17.8577 23.2769 17.6923 23.8462 17.6923C25.5431 17.6923 26.9231 19.0723 26.9231 20.7692C26.9231 22.4654 25.5431 23.8462 23.8462 23.8462C22.1492 23.8462 20.7692 22.4654 20.7692 20.7692C20.7692 20.2 20.9346 19.6731 21.2054 19.2154L16.3792 14.3892C16.0785 14.0892 16.0785 13.6023 16.3792 13.3015ZM23.8462 22.3069C24.6938 22.3069 25.3846 21.6169 25.3846 20.7692C25.3846 19.9208 24.6938 19.2308 23.8462 19.2308C23.5462 19.2308 23.2677 19.3208 23.03 19.47C22.9938 19.5808 22.94 19.6862 22.8515 19.7738C22.7638 19.8623 22.6577 19.9162 22.5469 19.9523C22.3977 20.19 22.3077 20.4685 22.3077 20.7692C22.3077 21.6169 22.9977 22.3069 23.8462 22.3069ZM36.1369 10.3346C38.5377 13.1492 40 16.7854 40 20.7692C40 29.6762 32.7531 36.9231 23.8462 36.9231C18.7162 36.9231 14.0054 34.5669 10.9215 30.4608C10.6669 30.1215 10.7354 29.6392 11.0746 29.3838C11.4146 29.1292 11.8977 29.1969 12.1523 29.5369C14.9431 33.2523 19.2054 35.3838 23.8462 35.3838C31.9054 35.3838 38.4615 28.8277 38.4615 20.7692C38.4615 12.71 31.9054 6.15308 23.8462 6.15308C18.9185 6.15308 14.3538 8.61231 11.6377 12.7308C11.4038 13.0854 10.9269 13.1831 10.5715 12.95C10.2169 12.7162 10.1192 12.2377 10.3531 11.8831C13.2138 7.54769 17.9285 4.88154 23.0769 4.63846V1.53769H20C19.5746 1.53769 19.2308 1.19308 19.2308 0.768462C19.2308 0.343846 19.5746 0 20 0H27.6923C28.1177 0 28.4615 0.343846 28.4615 0.768462C28.4615 1.19308 28.1177 1.53769 27.6923 1.53769H24.6154V4.65385C28.2931 4.82846 31.6485 6.24 34.2838 8.47385L36.3792 6.37846C36.68 6.07846 37.1662 6.07846 37.4669 6.37846L38.2362 7.14846C38.5369 7.44846 38.5369 7.93538 38.2362 8.23615L36.1369 10.3346ZM8.46154 16.9223H0.769231C0.343846 16.9223 0 16.5785 0 16.1531C0 15.7285 0.343846 15.3846 0.769231 15.3846H8.46154C8.88692 15.3846 9.23077 15.7285 9.23077 16.1531C9.23077 16.5785 8.88692 16.9223 8.46154 16.9223ZM3.84615 19.9992H13.0769C13.5023 19.9992 13.8462 20.3446 13.8462 20.7692C13.8462 21.1938 13.5023 21.5377 13.0769 21.5377H3.84615C3.42077 21.5377 3.07692 21.1938 3.07692 20.7692C3.07692 20.3446 3.42077 19.9992 3.84615 19.9992ZM6.15385 24.6154H10.7692C11.1946 24.6154 11.5385 24.9592 11.5385 25.3838C11.5385 25.8085 11.1946 26.1538 10.7692 26.1538H6.15385C5.72846 26.1538 5.38462 25.8085 5.38462 25.3838C5.38462 24.9592 5.72846 24.6154 6.15385 24.6154Z" fill="url(#paint0_linear)"/>
<defs>
<linearGradient id="paint0_linear" x1="0" y1="0" x2="40.2569" y2="36.9791" gradientUnits="userSpaceOnUse">
<stop stop-color="white" stop-opacity="0.5"/>
<stop offset="1" stop-color="white" stop-opacity="0.1"/>
</linearGradient>
</defs>
</svg>

<svg width="40" height="37" viewBox="0 0 40 37" fill="none" xmlns="http://www.w3.org/2000/svg"><path fill-rule="evenodd" clip-rule="evenodd" d="M16.38 13.302c.3-.3.786-.3 1.087 0l4.826 4.826c.458-.27.984-.436 1.553-.436a3.08 3.08 0 013.077 3.077 3.08 3.08 0 01-3.077 3.077 3.08 3.08 0 01-3.077-3.077c0-.569.166-1.096.436-1.554L16.38 14.39c-.3-.3-.3-.787 0-1.087zm7.466 9.005a1.54 1.54 0 001.539-1.538 1.54 1.54 0 00-1.539-1.538c-.3 0-.578.09-.816.239a.739.739 0 01-.178.304.74.74 0 01-.305.178 1.53 1.53 0 001.3 2.355zm12.29-11.972C38.539 13.149 40 16.785 40 20.769c0 8.907-7.247 16.154-16.154 16.154-5.13 0-9.84-2.356-12.925-6.462a.77.77 0 011.231-.924c2.791 3.715 7.053 5.847 11.694 5.847 8.06 0 14.616-6.556 14.616-14.615 0-8.059-6.557-14.616-14.616-14.616a14.59 14.59 0 00-12.208 6.578.77.77 0 01-1.285-.848 16.121 16.121 0 0112.724-7.245v-3.1H20A.769.769 0 1120 0h7.692a.768.768 0 110 1.538h-3.077v3.116a16.102 16.102 0 019.669 3.82l2.095-2.096a.77.77 0 011.088 0l.77.77c.3.3.3.787 0 1.088l-2.1 2.099zM8.463 16.922H.769a.768.768 0 110-1.537h7.693a.768.768 0 110 1.537zM3.846 20h9.23a.77.77 0 010 1.539h-9.23a.768.768 0 110-1.539zm2.308 4.616h4.615a.768.768 0 110 1.539H6.154a.77.77 0 010-1.539z" fill="#F2C94C"/><path fill-rule="evenodd" clip-rule="evenodd" d="M16.38 13.302c.3-.3.786-.3 1.087 0l4.826 4.826c.458-.27.984-.436 1.553-.436a3.08 3.08 0 013.077 3.077 3.08 3.08 0 01-3.077 3.077 3.08 3.08 0 01-3.077-3.077c0-.569.166-1.096.436-1.554L16.38 14.39c-.3-.3-.3-.787 0-1.087zm7.466 9.005a1.54 1.54 0 001.539-1.538 1.54 1.54 0 00-1.539-1.538c-.3 0-.578.09-.816.239a.739.739 0 01-.178.304.74.74 0 01-.305.178 1.53 1.53 0 001.3 2.355zm12.29-11.972C38.539 13.149 40 16.785 40 20.769c0 8.907-7.247 16.154-16.154 16.154-5.13 0-9.84-2.356-12.925-6.462a.77.77 0 011.231-.924c2.791 3.715 7.053 5.847 11.694 5.847 8.06 0 14.616-6.556 14.616-14.615 0-8.059-6.557-14.616-14.616-14.616a14.59 14.59 0 00-12.208 6.578.77.77 0 01-1.285-.848 16.121 16.121 0 0112.724-7.245v-3.1H20A.769.769 0 1120 0h7.692a.768.768 0 110 1.538h-3.077v3.116a16.102 16.102 0 019.669 3.82l2.095-2.096a.77.77 0 011.088 0l.77.77c.3.3.3.787 0 1.088l-2.1 2.099zM8.463 16.922H.769a.768.768 0 110-1.537h7.693a.768.768 0 110 1.537zM3.846 20h9.23a.77.77 0 010 1.539h-9.23a.768.768 0 110-1.539zm2.308 4.616h4.615a.768.768 0 110 1.539H6.154a.77.77 0 010-1.539z" fill="url(#paint0_linear)"/><defs><linearGradient id="paint0_linear" x1="0" y1="0" x2="40.257" y2="36.979" gradientUnits="userSpaceOnUse"><stop stop-color="#fff" stop-opacity=".5"/><stop offset="1" stop-color="#fff" stop-opacity=".1"/></linearGradient></defs></svg>
